X: 2622
T: Bam's Dog's English
R: strathspey
M: 4/4
K: Amajor
|:E<A A>B c2 B>A|A<F F>E A<F F>A|E<A A>B c2 c>e|a>f e>c c<B B>c|
E<A A>B c2 B>A|A<F F>E A<F F>e|f>e f<a e>f e>c|B>A B<c A4:|
|:F2 F>E (3FAB c>B|A<B B>A B<c B>A|F2 F>E (3FAB (3cef|a>f e>c c<B B2|
F2 F>E (3FAB c>B|A<B B>A B<c B>e|f>e f<a e>f e>c|B>A B<c A4:|

